mobile/apps/auth/assets/custom-icons/icons/proxmox.svg

<svg width="500" height="500" viewBox="0 0 500 500" fill="none" xmlns="http://www.w3.org/2000/svg">
<g style="mix-blend-mode:difference">
<path d="M134.664 33C124.407 33 115.471 34.837 106.794 38.518C98.3731 42.2 91.0101 47.196 84.4341 53.773L250.4 235.779L416.102 53.773C409.526 47.196 402.156 42.2 393.214 38.518C385.058 34.838 375.6 33 365.864 33C355.607 33 345.878 35.108 337.2 39.054C328.258 42.994 320.888 48.783 314.054 55.617L250.4 126.105L185.966 55.617C179.39 48.783 172.021 42.993 162.814 39.054C154.664 35.108 144.922 33 134.664 33ZM250.4 263.4L84.4341 445.678C91.0101 451.99 98.3731 457.244 106.794 460.932C115.471 464.613 124.421 466.451 134.149 466.451C144.936 466.451 154.136 464.085 162.814 460.396C172.021 456.193 179.905 450.667 186.481 443.834L250.401 373.346L314.312 443.834C320.888 450.667 328.258 456.193 337.2 460.396C345.878 464.085 355.342 466.451 365.865 466.451C375.6 466.451 385.058 464.613 393.214 460.932C402.156 457.244 409.526 451.99 416.102 445.678L250.4 263.4Z" fill="white"/>
</g>
<path d="M54.705 87.7119C44.183 87.9759 33.925 90.0709 24.725 94.0169C15.255 97.9629 7.098 103.488 0 110.329L126.787 249.725L0 388.865C7.098 395.969 15.254 401.481 24.725 405.691C33.925 409.901 44.183 411.746 54.705 412.268C66.013 411.746 76.549 409.908 86.278 405.176C96.014 400.702 104.42 394.647 111.518 387.013L236.454 249.725L111.52 112.695C103.893 105.325 95.743 99.2779 86.008 94.5449C76.279 90.0779 66.013 87.9759 54.705 87.7119ZM445.038 87.7119C433.729 87.9759 423.729 90.0779 413.993 94.5459C404.265 99.2779 395.844 105.326 388.481 112.695L264.075 249.725L388.48 387.013C395.843 394.647 404.264 400.702 413.992 405.176C423.728 409.908 433.728 411.746 445.037 412.268C456.345 411.746 466.074 409.901 475.281 405.691C485.274 401.481 492.901 395.969 499.999 388.864L373.492 249.725L500 110.33C492.902 103.489 485.275 97.9639 475.282 94.0179C466.075 90.0719 456.346 87.9769 445.038 87.7119Z" fill="#E57000"/>
</svg>

<svg xmlns="http://www.w3.org/2000/svg" fill="none" viewBox="0 0 500 500"><path fill="#fff" d="M134.664 33c-10.257 0-19.193 1.837-27.87 5.518-8.42 3.682-15.784 8.678-22.36 15.255L250.4 235.779 416.102 53.773c-6.576-6.577-13.946-11.573-22.888-15.255C385.058 34.838 375.6 33 365.864 33c-10.257 0-19.986 2.108-28.664 6.054-8.942 3.94-16.312 9.729-23.146 16.563L250.4 126.105l-64.434-70.488c-6.576-6.834-13.945-12.624-23.152-16.563-8.15-3.946-17.892-6.054-28.15-6.054ZM250.4 263.4 84.434 445.678c6.576 6.312 13.94 11.566 22.36 15.254 8.677 3.681 17.627 5.519 27.355 5.519 10.787 0 19.987-2.366 28.665-6.055 9.207-4.203 17.091-9.729 23.667-16.562l63.92-70.488 63.911 70.488c6.576 6.833 13.946 12.359 22.888 16.562 8.678 3.689 18.142 6.055 28.665 6.055 9.735 0 19.193-1.838 27.349-5.519 8.942-3.688 16.312-8.942 22.888-15.254L250.4 263.4Z" style="mix-blend-mode:difference"/><path fill="#E57000" d="M54.705 87.712c-10.522.264-20.78 2.359-29.98 6.305-9.47 3.946-17.627 9.471-24.725 16.312l126.787 139.396L0 388.865c7.098 7.104 15.254 12.616 24.725 16.826 9.2 4.21 19.458 6.055 29.98 6.577 11.308-.522 21.844-2.36 31.573-7.092 9.736-4.474 18.142-10.529 25.24-18.163l124.936-137.288-124.934-137.03c-7.627-7.37-15.777-13.417-25.512-18.15-9.729-4.467-19.995-6.57-31.303-6.833Zm390.333 0c-11.309.264-21.309 2.366-31.045 6.834-9.728 4.732-18.149 10.78-25.512 18.149l-124.406 137.03L388.48 387.013c7.363 7.634 15.784 13.689 25.512 18.163 9.736 4.732 19.736 6.57 31.045 7.092 11.308-.522 21.037-2.367 30.244-6.577 9.993-4.21 17.62-9.722 24.718-16.827L373.492 249.725 500 110.33c-7.098-6.841-14.725-12.366-24.718-16.312-9.207-3.946-18.936-6.041-30.244-6.306Z"/></svg>
